styles/3/Numix/48/actions/blue-add-folders-to-archive.svg

<?xml version="1.0" encoding="UTF-8" standalone="no"?>
<svg
   xmlns:dc="http://purl.org/dc/elements/1.1/"
   xmlns:cc="http://creativecommons.org/ns#"
   xmlns:rdf="http://www.w3.org/1999/02/22-rdf-syntax-ns#"
   xmlns:svg="http://www.w3.org/2000/svg"
   xmlns="http://www.w3.org/2000/svg"
   xmlns:sodipodi="http://sodipodi.sourceforge.net/DTD/sodipodi-0.dtd"
   xmlns:inkscape="http://www.inkscape.org/namespaces/inkscape"
   width="48"
   height="48"
   viewBox="0 0 48 48"
   id="svg2"
   version="1.1"
   inkscape:version="0.91 r"
   sodipodi:docname="blue-add-folders-to-archive.svg">
  <metadata
     id="metadata20">
    <rdf:RDF>
      <cc:Work
         rdf:about="">
        <dc:format>image/svg+xml</dc:format>
        <dc:type
           rdf:resource="http://purl.org/dc/dcmitype/StillImage" />
      </cc:Work>
    </rdf:RDF>
  </metadata>
  <defs
     id="defs18" />
  <sodipodi:namedview
     pagecolor="#ffffff"
     bordercolor="#666666"
     borderopacity="1"
     objecttolerance="10"
     gridtolerance="10"
     guidetolerance="10"
     inkscape:pageopacity="0"
     inkscape:pageshadow="2"
     inkscape:window-width="1280"
     inkscape:window-height="998"
     id="namedview16"
     showgrid="true"
     inkscape:zoom="6.9532168"
     inkscape:cx="34.596216"
     inkscape:cy="35.557312"
     inkscape:window-x="0"
     inkscape:window-y="0"
     inkscape:window-maximized="1"
     inkscape:current-layer="svg2"
     showguides="true"
     inkscape:guide-bbox="true">
    <inkscape:grid
       type="xygrid"
       id="grid2997" />
  </sodipodi:namedview>
  <rect
     style="fill:#1976d2;fill-opacity:1;stroke:none"
     id="rect3757-2"
     width="32"
     height="13"
     x="3"
     y="20" />
  <path
     style="fill:#1976d2;fill-opacity:1;stroke:none"
     d="m 7,21 c 0,-1.5 0,-3 1.818183,-3 l 6.363635,0 C 17,18 17,19.5 17,21 z"
     id="path3759-6"
     inkscape:connector-curvature="0"
     sodipodi:nodetypes="ccccc" />
  <path
     style="fill:#95989f;fill-opacity:1;stroke:none"
     d="m 6,22 27,0 0,6.066666 -27,0 z"
     id="path3765-1"
     inkscape:connector-curvature="0" />
  <rect
     y="21"
     x="8"
     height="17"
     width="24"
     id="rect3763-1"
     style="fill:#d8d8da;fill-opacity:1;stroke:none" />
  <rect
     style="fill:#f9f9f9;fill-opacity:1;stroke:none"
     id="rect3761-7"
     width="24"
     height="17.333334"
     x="7"
     y="24" />
  <path
     style="fill:#42a5f5;fill-opacity:1;stroke:none"
     d="M 0,25 38.133334,25 34,46 3,46 z"
     id="path2987-5"
     inkscape:connector-curvature="0"
     sodipodi:nodetypes="ccccc" />
  <path
     style="fill:#000000;fill-opacity:0.10196078;stroke:none"
     d="m 8.7836066,18 c -1.397968,0 -1.702362,0.903346 -1.7754099,2 l -4.0180328,0 0,5 L 0,25 2.9901639,46 33.888525,46 38,25 l -3.114754,0 0,-5 -17.972131,0 c -0.07305,-1.096654 -0.377443,-2 -1.77541,-2 z"
     id="rect3048"
     inkscape:connector-curvature="0"
     sodipodi:nodetypes="sccccccccccss" />
  <rect
     style="fill:#1976d2;fill-opacity:1;stroke:none"
     id="rect3757"
     width="32"
     height="13"
     x="13"
     y="4" />
  <path
     style="fill:#1976d2;fill-opacity:1;stroke:none"
     d="m 17,5 c 0,-1.5000001 0,-3 1.818183,-3 l 6.363635,0 C 27,2 27,3.4999999 27,5 z"
     id="path3759"
     inkscape:connector-curvature="0"
     sodipodi:nodetypes="ccccc" />
  <path
     style="fill:#95989f;fill-opacity:1;stroke:none"
     d="m 16,6 27,0 0,6.066666 -27,0 z"
     id="path3765"
     inkscape:connector-curvature="0" />
  <rect
     y="5"
     x="18"
     height="17"
     width="24"
     id="rect3763"
     style="fill:#d8d8da;fill-opacity:1;stroke:none" />
  <rect
     style="fill:#f9f9f9;fill-opacity:1;stroke:none"
     id="rect3761"
     width="24"
     height="17.333334"
     x="17"
     y="8" />
  <path
     style="fill:#42a5f5;fill-opacity:1;stroke:none"
     d="M 10,9 48.133334,9 45,30 13,30 z"
     id="path2987"
     inkscape:connector-curvature="0"
     sodipodi:nodetypes="ccccc" />
  <path
     style="fill:#859900"
     d="M 46 30 L 38 30 L 38 22 L 30 22 L 30 30 L 22 30 L 22 38 L 30 38 L 30 46 L 38 46 L 38 38 L 46 38 Z "
     id="path14" />
</svg>

<svg xmlns="http://www.w3.org/2000/svg" viewBox="0 0 48 48">
 <rect width="32" height="13" x="3" y="20" style="fill:#1976d2;fill-opacity:1;stroke:none"/>
 <path d="m 7 21 c 0 -1.5 0 -3 1.818 -3 l 6.364 0 c 1.818 0 1.818 1.5 1.818 3 z" style="fill:#1976d2;fill-opacity:1;stroke:none"/>
 <path d="m 6 22 27 0 0 6.067 -27 0 z" style="fill:#95989f;fill-opacity:1;stroke:none"/>
 <rect y="21" x="8" height="17" width="24" style="fill:#d8d8da;fill-opacity:1;stroke:none"/>
 <rect width="24" height="17.333" x="7" y="24" style="fill:#f9f9f9;fill-opacity:1;stroke:none"/>
 <path d="m 0 25 38.13 0 -4.133 21 -31 0 z" style="fill:#42a5f5;fill-opacity:1;stroke:none"/>
 <path d="m 8.784 18 c -1.398 0 -1.702 0.903 -1.775 2 l -4.02 0 0 5 l -2.99 0 2.99 21 30.898 0 4.111 -21 l -3.115 0 0 -5 -17.972 0 c -0.073 -1.097 -0.377 -2 -1.775 -2 z" style="fill:#000;fill-opacity:0.102;stroke:none"/>
 <rect width="32" height="13" x="13" y="4" style="fill:#1976d2;fill-opacity:1;stroke:none"/>
 <path d="m 17 5 c 0 -1.5 0 -3 1.818 -3 l 6.364 0 c 1.818 0 1.818 1.5 1.818 3 z" style="fill:#1976d2;fill-opacity:1;stroke:none"/>
 <path d="m 16 6 27 0 0 6.067 -27 0 z" style="fill:#95989f;fill-opacity:1;stroke:none"/>
 <rect y="5" x="18" height="17" width="24" style="fill:#d8d8da;fill-opacity:1;stroke:none"/>
 <rect width="24" height="17.333" x="17" y="8" style="fill:#f9f9f9;fill-opacity:1;stroke:none"/>
 <path d="m 10 9 38.13 0 -3.133 21 -32 0 z" style="fill:#42a5f5;fill-opacity:1;stroke:none"/>
 <path d="m 46 30 l -8 0 l 0 -8 l -8 0 l 0 8 l -8 0 l 0 8 l 8 0 l 0 8 l 8 0 l 0 -8 l 8 0 Z" style="fill:#859900"/>
</svg>
